data/icons/scalable/goa-account-ms365.svg

<?xml version="1.0" encoding="UTF-8" standalone="no"?>
<svg
   viewBox="0 0 128 128"
   style="display:inline;enable-background:new"
   version="1.0"
   id="svg11300"
   height="128"
   width="128"
   xml:space="preserve"
   xmlns:xlink="http://www.w3.org/1999/xlink"
   xmlns="http://www.w3.org/2000/svg"
   xmlns:svg="http://www.w3.org/2000/svg"
   xmlns:rdf="http://www.w3.org/1999/02/22-rdf-syntax-ns#"
   xmlns:cc="http://creativecommons.org/ns#"
   xmlns:dc="http://purl.org/dc/elements/1.1/"><title
     id="title4162">Adwaita Icon Template</title><defs
     id="defs3"><radialGradient
       id="paint0_radial_2994_8373"
       cx="0"
       cy="0"
       r="1"
       gradientUnits="userSpaceOnUse"
       gradientTransform="matrix(-11.700186,31.247009,-54.50117,-20.407516,17.4186,10.6383)"><stop
         offset="0.06441"
         stop-color="#AE7FE2"
         id="stop8" /><stop
         offset="1"
         stop-color="#0078D4"
         id="stop9" /></radialGradient><linearGradient
       id="paint1_linear_2994_8373"
       x1="17.5119"
       y1="37.8685"
       x2="12.7513"
       y2="29.6347"
       gradientUnits="userSpaceOnUse"><stop
         stop-color="#114A8B"
         id="stop10" /><stop
         offset="1"
         stop-color="#0078D4"
         stop-opacity="0"
         id="stop11" /></linearGradient><radialGradient
       id="paint2_radial_2994_8373"
       cx="0"
       cy="0"
       r="1"
       gradientUnits="userSpaceOnUse"
       gradientTransform="matrix(30.719797,-4.5183204,2.9846529,20.29248,10.4299,36.3511)"><stop
         offset="0.133928"
         stop-color="#D59DFF"
         id="stop12" /><stop
         offset="1"
         stop-color="#5E438F"
         id="stop13" /></radialGradient><linearGradient
       id="paint3_linear_2994_8373"
       x1="40.3566"
       y1="25.3768"
       x2="35.2552"
       y2="32.6916"
       gradientUnits="userSpaceOnUse"><stop
         stop-color="#493474"
         id="stop14" /><stop
         offset="1"
         stop-color="#8C66BA"
         stop-opacity="0"
         id="stop15" /></linearGradient><radialGradient
       id="paint4_radial_2994_8373"
       cx="0"
       cy="0"
       r="1"
       gradientUnits="userSpaceOnUse"
       gradientTransform="matrix(-24.158302,-6.1255536,10.311796,-40.668239,41.0552,26.504)"><stop
         offset="0.0584996"
         stop-color="#50E6FF"
         id="stop16" /><stop
         offset="1"
         stop-color="#436DCD"
         id="stop17" /></radialGradient><linearGradient
       id="paint5_linear_2994_8373"
       x1="16.9758"
       y1="3.05655"
       x2="24.4868"
       y2="3.05655"
       gradientUnits="userSpaceOnUse"><stop
         stop-color="#2D3F80"
         id="stop18" /><stop
         offset="1"
         stop-color="#436DCD"
         stop-opacity="0"
         id="stop19" /></linearGradient><radialGradient
       id="paint6_radial_2994_8373"
       cx="0"
       cy="0"
       r="1"
       gradientUnits="userSpaceOnUse"
       gradientTransform="matrix(-24.158302,-6.1255536,10.311796,-40.668239,41.0552,26.504)"><stop
         offset="0.0584996"
         stop-color="#50E6FF"
         id="stop20" /><stop
         offset="1"
         stop-color="#436DCD"
         id="stop21" /></radialGradient><linearGradient
       xlink:href="#paint5_linear_2994_8373"
       id="linearGradient2"
       gradientUnits="userSpaceOnUse"
       x1="16.9758"
       y1="3.05655"
       x2="24.4868"
       y2="3.05655" /><linearGradient
       xlink:href="#paint5_linear_2994_8373"
       id="linearGradient3"
       gradientUnits="userSpaceOnUse"
       x1="16.9758"
       y1="3.05655"
       x2="24.4868"
       y2="3.05655" /></defs><metadata
     id="metadata4"><rdf:RDF><cc:Work
         rdf:about=""><dc:format>image/svg+xml</dc:format><dc:type
           rdf:resource="http://purl.org/dc/dcmitype/StillImage" /><dc:creator><cc:Agent><dc:title>GNOME Design Team</dc:title></cc:Agent></dc:creator><dc:source /><cc:license
           rdf:resource="http://creativecommons.org/licenses/by-sa/4.0/" /><dc:title>Adwaita Icon Template</dc:title><dc:subject><rdf:Bag /></dc:subject><dc:date /><dc:rights><cc:Agent><dc:title /></cc:Agent></dc:rights><dc:publisher><cc:Agent><dc:title /></cc:Agent></dc:publisher><dc:identifier /><dc:relation /><dc:language /><dc:coverage /><dc:description /><dc:contributor><cc:Agent><dc:title /></cc:Agent></dc:contributor></cc:Work><cc:License
         rdf:about="http://creativecommons.org/licenses/by-sa/4.0/"><cc:permits
           rdf:resource="http://creativecommons.org/ns#Reproduction" /><cc:permits
           rdf:resource="http://creativecommons.org/ns#Distribution" /><cc:requires
           rdf:resource="http://creativecommons.org/ns#Notice" /><cc:requires
           rdf:resource="http://creativecommons.org/ns#Attribution" /><cc:permits
           rdf:resource="http://creativecommons.org/ns#DerivativeWorks" /><cc:requires
           rdf:resource="http://creativecommons.org/ns#ShareAlike" /></cc:License></rdf:RDF></metadata><rect
     ry="8"
     rx="7.9999986"
     y="11.99988"
     x="12"
     height="104.00024"
     width="104"
     id="rect929-36-9"
     style="display:inline;vector-effect:none;fill:#f6f5f4;fill-opacity:1;stroke:none;stroke-width:0.25;stroke-linecap:butt;stroke-linejoin:miter;stroke-miterlimit:4;stroke-dasharray:none;stroke-dashoffset:0;stroke-opacity:1;marker:none;marker-start:none;marker-mid:none;marker-end:none;paint-order:normal;enable-background:new" /><g
     style="fill:none;stroke-width:0.769231"
     id="g2"
     transform="matrix(1.95,0,0,1.95,17.199998,17.197971)"><path
       d="m 20.0842,3.02588 -0.2247,0.13591 c -0.3574,0.2162 -0.6941,0.45793 -1.0083,0.72206 L 19.4993,3.42798 H 25 L 26,11 l -5,5 -5,3.4754 v 4.0075 c 0,2.799 1.4629,5.3945 3.8574,6.8439 L 25.1211,33.5129 14,40.0002 H 11.8551 L 7.85737,37.5804 C 5.46286,36.131 4,33.5355 4,30.7365 V 17.2606 C 4,14.4607 5.46379,11.8645 7.85952,10.4154 L 19.8595,3.15687 c 0.0744,-0.04498 0.1493,-0.08864 0.2247,-0.13099 z"
       fill="url(#paint0_radial_2994_8373)"
       id="path1-3"
       style="fill:url(#paint0_radial_2994_8373);stroke-width:0.769231" /><path
       d="m 20.0842,3.02588 -0.2247,0.13591 c -0.3574,0.2162 -0.6941,0.45793 -1.0083,0.72206 L 19.4993,3.42798 H 25 L 26,11 l -5,5 -5,3.4754 v 4.0075 c 0,2.799 1.4629,5.3945 3.8574,6.8439 L 25.1211,33.5129 14,40.0002 H 11.8551 L 7.85737,37.5804 C 5.46286,36.131 4,33.5355 4,30.7365 V 17.2606 C 4,14.4607 5.46379,11.8645 7.85952,10.4154 L 19.8595,3.15687 c 0.0744,-0.04498 0.1493,-0.08864 0.2247,-0.13099 z"
       fill="url(#paint1_linear_2994_8373)"
       id="path2-5"
       style="fill:url(#paint1_linear_2994_8373);stroke-width:0.769231" /><path
       d="m 32,19 v 4.4803 c 0,2.799 -1.4629,5.3945 -3.8574,6.8439 l -12,7.2636 c -2.4548,1.4859 -5.5091,1.5395 -8.0071,0.1609 l 11.7218,7.0953 c 2.5466,1.5415 5.7386,1.5415 8.2853,0 l 12,-7.2637 c 2.3945,-1.4494 3.8573,-4.0449 3.8573,-6.8439 V 27.5 l -1,-1.5 z"
       fill="url(#paint2_radial_2994_8373)"
       id="path3-6"
       style="fill:url(#paint2_radial_2994_8373);stroke-width:0.769231" /><path
       d="m 32,19 v 4.4803 c 0,2.799 -1.4629,5.3945 -3.8574,6.8439 l -12,7.2636 c -2.4548,1.4859 -5.5091,1.5395 -8.0071,0.1609 l 11.7218,7.0953 c 2.5466,1.5415 5.7386,1.5415 8.2853,0 l 12,-7.2637 c 2.3945,-1.4494 3.8573,-4.0449 3.8573,-6.8439 V 27.5 l -1,-1.5 z"
       fill="url(#paint3_linear_2994_8373)"
       id="path4-2"
       style="fill:url(#paint3_linear_2994_8373);stroke-width:0.769231" /><path
       d="m 40.1405,10.4153 -12,-7.25852 C 25.6738,1.66471 22.6021,1.61849 20.0979,3.01811 l -0.2384,0.1442 C 17.4638,4.61143 16,7.20757 16,10.0075 v 9.4839 l 3.8595,-2.3346 c 2.5456,-1.5397 5.7354,-1.5397 8.281,0 l 12,7.2585 c 2.3208,1.4039 3.7671,3.8841 3.8552,6.5832 C 43.9986,30.9113 44,30.824 44,30.7364 V 17.2605 c 0,-2.7999 -1.4638,-5.3961 -3.8595,-6.8452 z"
       fill="url(#paint4_radial_2994_8373)"
       id="path5-9"
       style="fill:url(#paint4_radial_2994_8373);stroke-width:0.769231" /><path
       d="m 40.1405,10.4153 -12,-7.25852 C 25.6738,1.66471 22.6021,1.61849 20.0979,3.01811 l -0.2384,0.1442 C 17.4638,4.61143 16,7.20757 16,10.0075 v 9.4839 l 3.8595,-2.3346 c 2.5456,-1.5397 5.7354,-1.5397 8.281,0 l 12,7.2585 c 2.3208,1.4039 3.7671,3.8841 3.8552,6.5832 C 43.9986,30.9113 44,30.824 44,30.7364 V 17.2605 c 0,-2.7999 -1.4638,-5.3961 -3.8595,-6.8452 z"
       fill="url(#paint5_linear_2994_8373)"
       id="path6-1"
       style="fill:url(#linearGradient2);stroke-width:0.769231" /><path
       d="M 4.00428,30.9984 Z"
       fill="url(#paint6_radial_2994_8373)"
       id="path7-2"
       style="fill:url(#paint6_radial_2994_8373);stroke-width:0.769231" /><path
       d="M 4.00428,30.9984 Z"
       fill="url(#paint7_linear_2994_8373)"
       id="path8-7"
       style="fill:url(#linearGradient3);stroke-width:0.769231" /></g></svg>

<svg id="image-2" alt="Image-2" width="72" height="72" viewBox="0 0 48 48" fill="none" xmlns="http://www.w3.org/2000/svg" role="img" aria-label="Microsoft 365 Logo">
  <path d="M20.0842 3.02588L19.8595 3.16179C19.5021 3.37799 19.1654 3.61972 18.8512 3.88385L19.4993 3.42798H25L26 11L21 16L16 19.4754V23.4829C16 26.2819 17.4629 28.8774 19.8574 30.3268L25.1211 33.5129L14 40.0002H11.8551L7.85737 37.5804C5.46286 36.131 4 33.5355 4 30.7365V17.2606C4 14.4607 5.46379 11.8645 7.85952 10.4154L19.8595 3.15687C19.9339 3.11189 20.0088 3.06823 20.0842 3.02588Z" fill="url(#paint0_radial_2994_8373)"/>
  <path d="M20.0842 3.02588L19.8595 3.16179C19.5021 3.37799 19.1654 3.61972 18.8512 3.88385L19.4993 3.42798H25L26 11L21 16L16 19.4754V23.4829C16 26.2819 17.4629 28.8774 19.8574 30.3268L25.1211 33.5129L14 40.0002H11.8551L7.85737 37.5804C5.46286 36.131 4 33.5355 4 30.7365V17.2606C4 14.4607 5.46379 11.8645 7.85952 10.4154L19.8595 3.15687C19.9339 3.11189 20.0088 3.06823 20.0842 3.02588Z" fill="url(#paint1_linear_2994_8373)"/>
  <path d="M32 19V23.4803C32 26.2793 30.5371 28.8748 28.1426 30.3242L16.1426 37.5878C13.6878 39.0737 10.6335 39.1273 8.1355 37.7487L19.8573 44.844C22.4039 46.3855 25.5959 46.3855 28.1426 44.844L40.1426 37.5803C42.5371 36.1309 43.9999 33.5354 43.9999 30.7364V27.5L42.9999 26L32 19Z" fill="url(#paint2_radial_2994_8373)"/>
  <path d="M32 19V23.4803C32 26.2793 30.5371 28.8748 28.1426 30.3242L16.1426 37.5878C13.6878 39.0737 10.6335 39.1273 8.1355 37.7487L19.8573 44.844C22.4039 46.3855 25.5959 46.3855 28.1426 44.844L40.1426 37.5803C42.5371 36.1309 43.9999 33.5354 43.9999 30.7364V27.5L42.9999 26L32 19Z" fill="url(#paint3_linear_2994_8373)"/>
  <path d="M40.1405 10.4153L28.1405 3.15678C25.6738 1.66471 22.6021 1.61849 20.0979 3.01811L19.8595 3.16231C17.4638 4.61143 16 7.20757 16 10.0075V19.4914L19.8595 17.1568C22.4051 15.6171 25.5949 15.6171 28.1405 17.1568L40.1405 24.4153C42.4613 25.8192 43.9076 28.2994 43.9957 30.9985C43.9986 30.9113 44 30.824 44 30.7364V17.2605C44 14.4606 42.5362 11.8644 40.1405 10.4153Z" fill="url(#paint4_radial_2994_8373)"/>
  <path d="M40.1405 10.4153L28.1405 3.15678C25.6738 1.66471 22.6021 1.61849 20.0979 3.01811L19.8595 3.16231C17.4638 4.61143 16 7.20757 16 10.0075V19.4914L19.8595 17.1568C22.4051 15.6171 25.5949 15.6171 28.1405 17.1568L40.1405 24.4153C42.4613 25.8192 43.9076 28.2994 43.9957 30.9985C43.9986 30.9113 44 30.824 44 30.7364V17.2605C44 14.4606 42.5362 11.8644 40.1405 10.4153Z" fill="url(#paint5_linear_2994_8373)"/>
  <path d="M4.00428 30.9984C4.00428 30.9984 4.00428 30.9984 4.00428 30.9984Z" fill="url(#paint6_radial_2994_8373)"/>
  <path d="M4.00428 30.9984C4.00428 30.9984 4.00428 30.9984 4.00428 30.9984Z" fill="url(#paint7_linear_2994_8373)"/>
  <defs>
    <radialGradient id="paint0_radial_2994_8373" cx="0" cy="0" r="1" gradientUnits="userSpaceOnUse" gradientTransform="translate(17.4186 10.6383) rotate(110.528) scale(33.3657 58.1966)">
      <stop offset="0.06441" stop-color="#AE7FE2"/>
      <stop offset="1" stop-color="#0078D4"/>
    </radialGradient>
    <linearGradient id="paint1_linear_2994_8373" x1="17.5119" y1="37.8685" x2="12.7513" y2="29.6347" gradientUnits="userSpaceOnUse">
      <stop stop-color="#114A8B"/>
      <stop offset="1" stop-color="#0078D4" stop-opacity="0"/>
    </linearGradient>
    <radialGradient id="paint2_radial_2994_8373" cx="0" cy="0" r="1" gradientUnits="userSpaceOnUse" gradientTransform="translate(10.4299 36.3511) rotate(-8.36717) scale(31.0503 20.5108)">
      <stop offset="0.133928" stop-color="#D59DFF"/>
      <stop offset="1" stop-color="#5E438F"/>
    </radialGradient>
    <linearGradient id="paint3_linear_2994_8373" x1="40.3566" y1="25.3768" x2="35.2552" y2="32.6916" gradientUnits="userSpaceOnUse">
      <stop stop-color="#493474"/>
      <stop offset="1" stop-color="#8C66BA" stop-opacity="0"/>
    </linearGradient>
    <radialGradient id="paint4_radial_2994_8373" cx="0" cy="0" r="1" gradientUnits="userSpaceOnUse" gradientTransform="translate(41.0552 26.504) rotate(-165.772) scale(24.9228 41.9552)">
      <stop offset="0.0584996" stop-color="#50E6FF"/>
      <stop offset="1" stop-color="#436DCD"/>
    </radialGradient>
    <linearGradient id="paint5_linear_2994_8373" x1="16.9758" y1="3.05655" x2="24.4868" y2="3.05655" gradientUnits="userSpaceOnUse">
      <stop stop-color="#2D3F80"/>
      <stop offset="1" stop-color="#436DCD" stop-opacity="0"/>
    </linearGradient>
    <radialGradient id="paint6_radial_2994_8373" cx="0" cy="0" r="1" gradientUnits="userSpaceOnUse" gradientTransform="translate(41.0552 26.504) rotate(-165.772) scale(24.9228 41.9552)">
      <stop offset="0.0584996" stop-color="#50E6FF"/>
      <stop offset="1" stop-color="#436DCD"/>
    </radialGradient>
    <linearGradient id="paint7_linear_2994_8373" x1="16.9758" y1="3.05655" x2="24.4868" y2="3.05655" gradientUnits="userSpaceOnUse">
      <stop stop-color="#2D3F80"/>
      <stop offset="1" stop-color="#436DCD" stop-opacity="0"/>
    </linearGradient>
  </defs>
</svg>
